X:1
T:Title
%%score { ( 1 3 4 ) | ( 2 5 ) }
L:1/8
M:6/8
K:C
V:1 treble nm="Grand Piano"
V:3 treble 
V:4 treble 
V:2 bass 
V:5 bass 
V:1
 z3 z2[Q:1/4=93] [CE]/[DF]/ | [EG]>[_E^F][=EG] [Ec][DB][Ec] | dcA [EG]2 [EG]/G/ | %3
 G>FE [B,D]>[CE][DF] | [CE]3- [CE]2 [CE]/[DF]/ | [EG]>[_E^F][=EG] [Ec][DB][Ec] | %6
 dcA [EG]2 [EG]/[EG]/ | [DB][Ec]B AE^F |[M:5/8] [B,G]-[B,G]- [B,G]3 |[M:1/8] G/G/ |[M:3/4] B4 z2 | %11
 c3 .G3 | [GB]>[FA] [EG]F- F/E/D | [FA]3 [EG]2 [EG]/[EG]/ | [Ec]4 [EB][Ec] | d2 c B2 A | %16
 GG c[DFB]- [DFB]/[DFA]/[DFB] |[M:5/8] [CEc]-[CEc]- [CEc]3 |] %18
V:2
 z3 z2 [C,G,]/[C,G,]/ | [C,C]>[C,C][C,C] [C,G,][C,G,][C,G,] | %2
 [F,A,F][F,A,F][F,CF] [C,C]2 [C,C]/[E,CE]/ | [G,CE]>[G,CD][G,C] [G,,G,]>[G,,G,][G,,G,] | %4
 [C,G,]3- [C,G,]2 [C,G,]/[C,G,]/ | [C,C]>[C,C][C,C] [C,G,][C,G,][C,G,] | %6
 [F,A,F][F,A,F][F,CF] [C,C]2 [C,C]/[C,C]/ | [D,G,][D,G,][D,G,D] [D,^F,C][D,G,C][D,A,C] | %8
[M:5/8] [G,,G,]-[G,,G,]- [G,,G,]3 |[M:1/8][K:treble] [G,B,D]/[G,B,D]/ | %10
[M:3/4] [G,DF]>[G,D] [G,D]D C[G,DF] | [C,C]>[C,C] [C,C][C,C] [C,C][C,G,] | %12
 [G,,G,]>[G,,G,] [G,,G,][G,D]- [G,D]/[G,A,C]/[G,B,] | [C,C]3 [C,C]2 [C,C]/[C,C]/ | %14
 [C,G,]4 [C,G,][C,G,] | [F,A,F]2 [F,A,F] [F,CG]2 [F,CF] | [G,CE][G,CE] [G,CE]G,,- G,,/G,,/G,, | %17
[M:5/8] C,-C,- C,3 |] %18
V:3
 x6 | x6 | x6 | x6 | x6 | x6 | x6 | x6 |[M:5/8] x5 |[M:1/8] x |[M:3/4] z z/ F/ .F2 AB | %11
 E>E EE E[EB] | x6 | x6 | x6 | x6 | x6 |[M:5/8] x5 |] %18
V:4
 x6 | x6 | x6 | x6 | x6 | x6 | x6 | x6 |[M:5/8] x5 |[M:1/8] x |[M:3/4] z2 z .F3 | x6 | x6 | x6 | %14
 x6 | x6 | x6 |[M:5/8] x5 |] %18
V:5
 x6 | x6 | x6 | x6 | x6 | x6 | x6 | x6 |[M:5/8] x5 |[M:1/8][K:treble] x |[M:3/4] z2 z .G,3 | x6 | %12
 x6 | x6 | x6 | x6 | x6 |[M:5/8] x5 |] %18

